X:1
T:Title
%%score [ 1 2 3 ]
L:1/8
Q:1/4=200
M:2/2
K:Bb
V:1 treble nm="Soprano"
V:2 treble nm="Alto"
V:3 treble-8 nm="Tenor"
V:1
 F6 F2 | D4 E2 E2 | F8 | B,4 B,4 | F2 F2 G2 B2- | B2 AG A2 A2 | B4 d2 d2 | d4 B2 e2 | d4 c2 c2 | %9
w: Va- ni-|tas va- ni-|ta-|tum et|o- mni- a va-|* * * * ni-|tas, va- ni-|tas va- ni-|ta- tum et|
 d2 d2 B4 | B6 G2 | F8 | F6 F2 | D4 E2 E2 | F8 | B,4 B,4 | F2 F2 G2 B2- | B2 AG A2 A2 | B4 d2 d2 | %19
w: o- mni- a|va- ni-|tas.|Va- ni-|tas va- ni-|ta-|tum et|o- mni- a va-|* * * * ni-|tas, va- ni-|
 d4 B2 e2 | d4 c2 c2 | d2 d2 B4 | B6 G2 | F8 | z8 | z8 | B4 A2 A2 | B8 | c8 | d8 |] %30
w: tas va- ni-|ta- tum et|o- mni- a|va- ni-|tas.|||o- mni- a|va-|ni-|tas.|
V:2
 z8 | z8 | z8 | F6 F2 | D4 E2 E2 | F8 | B,4 B,4 | F2 F2 G2 B2- | B2 AG A2 A2 | B4 d2 d2 | %10
w: |||Va- ni-|tas va- ni-|ta-|tum et|o- mni- a va-|* * * * ni-|tas, va- ni-|
 d4 B2 e2 | d4 c2 c2 | d2 d2 B4 | B6 G2 | F8 | F6 F2 | D4 E2 E2 | F8 | B,4 B,4 | F2 F2 G2 B2- | %20
w: tas va- ni-|ta- tum et|o- mni- a|va- ni-|tas.|Va- ni-|tas va- ni-|ta-|tum et|o- mni- a va-|
 B2 AG A2 A2 | B4 d2 d2 | d4 B2 e2 | d4 c2 c2 | d2 d2 B4 | B6 G2 | F8 | F8 | G8 | F8 |] %30
w: * * * * ni-|tas, va- ni-|tas va- ni-|ta- tum et|o- mni- a|va- ni-|tas.|va-|ni-|tas.|
V:3
 z8 | z8 | z8 | z8 | z8 | z8 | F6 F2 | D4 E2 E2 | F8 | B,4 B,4 | F2 F2 G2 B2- | B2 AG A2 A2 | %12
w: ||||||Va- ni-|tas va- ni-|ta-|tum et|o- mni- a va-|* * * * ni-|
 B4 d2 d2 | d4 B2 e2 | d4 c2 c2 | d2 d2 B4 | B6 G2 | F8 | F6 F2 | D4 E2 E2 | F8 | B,4 B,4 | %22
w: tas, va- ni-|tas va- ni-|ta- tum et|o- mni- a|va- ni-|tas.|Va- ni-|tas va- ni-|ta-|tum et|
 F2 F2 G2 B2- | B2 AG A2 A2 | B4 d2 d2 | d4 B2 e2 | d4 c2 c2 | d2 d2 B4 | B6 G2 | B8 |] %30
w: o- mni- a va-|* * * * ni-|tas, va- ni-|tas va- ni-|ta- tum et|o- mni- a|va- ni-|tas.|

